X:1
T:St. Margaret (Peace), 88.88.6
T:St. Margaret (Peace), 88.88.6
T:Albert Lister Peace, 1884
T:Public Domain Courtesy of the Cyber Hymnal™
C:Albert Lister Peace, 1884
Z:Public Domain
Z:Courtesy of the Cyber Hymnal™
%%score ( 1 2 ) ( 3 4 )
L:1/8
Q:1/4=100
M:4/4
K:Ab
V:1 treble 
V:2 treble 
V:3 bass 
V:4 bass 
V:1
 [CE]2 | E3 E E[EF][=DG][DA] | (A4 G2) [EG]2 | [EG]3 [EG] [EG][EA][GB][Ac] | (e4 d2) [Ed]2 | %5
 [Ec]3 [Ec] [=Ec][EB][EA][EG] | (B4 A2) [CA]2 [=DA]3 [DA][DA][DA][DG][DF] | E3 [EF] [EG]2 [EA]2 | %8
 [Ac]4 G2 | A6 |] %10
V:2
 x2 | E3 E E x3 | E6 x2 | x8 | B6 x2 | x8 | F6 x10 | E3 x5 | x4 G2 | A6 |] %10
V:3
 [A,,A,]2 | [A,C]3 [A,C] [A,C][A,C][F,A,][F,A,] | (C4 B,2) [E,B,]2 | D3 D D[CE][B,E][A,E] | %4
 [G,E]6 [G,B,]2 | [A,C]3 [A,C] [G,C][G,C][C,C][C,C] | %6
 [F,C]6 [F,A,]2 [B,,F,]3 [B,,F,][B,,F,][B,,F,][B,,G,][B,,A,] | [E,A,C]3 [E,A,] [E,B,]2 [E,C]2 | %8
 [E,E]4 [E,D]2 | [A,,C]6 |] %10
V:4
 x2 | x8 | E,6 x2 | D3 D D x3 | x8 | x8 | x16 | x8 | x6 | x6 |] %10

